icon/fa/plug-circle-exclamation.svg

<svg xmlns="http://www.w3.org/2000/svg" viewBox="0 0 576 512"><!--! Font Awesome Free 6.1.2 by @fontawesome - https://fontawesome.com License - https://fontawesome.com/license/free (Icons: CC BY 4.0, Fonts: SIL OFL 1.1, Code: MIT License) Copyright 2022 Fonticons, Inc.--><path d="M96 0c17.7 0 32 14.33 32 32v96H64V32C64 14.33 78.33 0 96 0zm192 0c17.7 0 32 14.33 32 32v96h-64V32c0-17.67 14.3-32 32-32zm64 160c17.7 0 32 14.3 32 32 0 2.3-.3 4.6-.7 6.8C309.8 219.1 256 287.7 256 368c0 11.4 1.1 22.5 3.1 33.3-11 5.1-22.8 9-35.1 11.5V512h-64v-99.2C86.97 397.1 32 333.4 32 256v-32c-17.67 0-32-14.3-32-32s14.33-32 32-32h320zm-64 208c0-79.5 64.5-144 144-144s144 64.5 144 144-64.5 144-144 144-144-64.5-144-144zm144 96c13.3 0 24-10.7 24-24s-10.7-24-24-24-24 10.7-24 24 10.7 24 24 24zm-16.9-176v80c0 8.8 8.1 16 16 16 9.7 0 16-7.2 16-16v-80c0-8.8-6.3-16-16-16-7.9 0-16 7.2-16 16z"/></svg>

<svg xmlns="http://www.w3.org/2000/svg" viewBox="0 0 576 512" height="1em" width="1em">
<!--! Font Awesome Free 6.1.2 by @fontawesome - https://fontawesome.com License - https://fontawesome.com/license/free (Icons: CC BY 4.0, Fonts: SIL OFL 1.1, Code: MIT License) Copyright 2022 Fonticons, Inc.-->
  <path d="M96 0C113.7 0 128 14.33 128 32V128H64V32C64 14.33 78.33 0 96 0zM288 0C305.7 0 320 14.33 320 32V128H256V32C256 14.33 270.3 0 288 0zM352 160C369.7 160 384 174.3 384 192C384 194.3 383.7 196.6 383.3 198.8C309.8 219.1 256 287.7 256 368C256 379.4 257.1 390.5 259.1 401.3C248.1 406.4 236.3 410.3 224 412.8V512H160V412.8C86.97 397.1 32 333.4 32 256V224C14.33 224 0 209.7 0 192C0 174.3 14.33 160 32 160H352zM288 368C288 288.5 352.5 224 432 224C511.5 224 576 288.5 576 368C576 447.5 511.5 512 432 512C352.5 512 288 447.5 288 368zM432 464C445.3 464 456 453.3 456 440C456 426.7 445.3 416 432 416C418.7 416 408 426.7 408 440C408 453.3 418.7 464 432 464zM415.1 288V368C415.1 376.8 423.2 384 431.1 384C440.8 384 447.1 376.8 447.1 368V288C447.1 279.2 440.8 272 431.1 272C423.2 272 415.1 279.2 415.1 288z"/>
</svg>
